X: 640
T: Ellerimde Büyüttüğüm
C: Barış Manço
O: Turkey
F: http://compmusic.upf.edu/node/140
N: ussak--popsarkisi--sofyan--ellerimde_buyuttugum--baris_manco
N: makam= ussak
N: form= popsarkisi
N: usul= sofyan = 4/4
M: 4/4
L: 1/16
K: C _2/4B   
Q: 1/4=108
%%MIDI tuningsystem comma53
z4 G2A2 A4 B2A2  | c2cd c2B2 B2A2 A4  | \
w:   |   | 
z4 G2A2 A4 B2A2  | c2cd c2B2 B2A2 A4  | 
w:   |   | 
z4 c2d2 d2d2 c4  | d2d4c2 c2_7/8B2 B2A2  | \
w:   |   | 
z2c2 B2c2 c2_7/8B2 B2A2  | 
w:   | 
A16  | z4 G2A2 A4 B2A2  | c2cd c2B2 B2A2 A4  | \
w:   |  El le rim de   |  bü yüt *  *  *  tü *  ğüm   | 
z4 G2A2 A4 B2A2  | 
w:  so lar_ i ken   | 
c2cd c2B2 B2A2 A4  | z4 c2d2 d2d2 c4  | \
w:  di rilt *  *  *  ti *  ğim    |  Çi çe ği mi   | 
d2d4c2 c2_7/8B2 B2A2  | 
w:  ko par *  dın  *  sen   | 
z2c2 B2c2 c2_7/8B2 B2A2  | A16  | z4 c2d2 d2d2 c4  | \
w:  el *  le re  *  ver  |  din    |  Çi çe ği mi   | 
d2d4c2 c2_7/8B2 B2A2  | 
w:  ko par *  dın  *  sen   | 
z2c2 B2c2 c2_7/8B2 B2A2  | A16  | z2c4d2 efed e4  | e16  | e16  | \
w:  el *  le re  *  ver  |  din    |  Dağ lar  dağ *  *  *  lar   |   |   | 
z4 c2d2 d2d4c2  | 
w:  kur ban_ o lam   | 
z2c2 B2c2 B2A2 A4  | z4 c2d2 d2d2 c4  | \
w:  yol  *  ver  ge çem    |  Sev di ği mi   | 
z2d2 c2d2 c2_7/8B2 B2A2  | 
w:  son  *  bir  ol *  sun   | 
z4 c2c2 c2_7/8B2 B2A2  | A16  | z2c4d2 efed e4  | e16  | e16  | \
w:  ya kın dan  *  gö  |  rem    |  Dağ lar  dağ *  *  *  lar   |   |   | 
z4 c2d2 d2d4c2  | 
w:  kur ban_ o lam   | 
z2c2 B2c2 B2A2 A4  | z4 c2d2 d2d2 c4  | \
w:  yol  *  ver  ge çem    |  Sev di ği mi   | 
z2d2 c2d2 c2_7/8B2 B2A2  | 
w:  son  *  bir  ol *  sun   | 
z4 c2c2 c2_7/8B2 B2A2  | A16  | z4 c2d2 d2d2 c4  | \
w:  ya kın dan  *  gö  |  rem    |  Sev di ği mi   | 
z2d2 c2d2 c2_7/8B2 B2A2  | 
w:  son  *  bir  ol *  sun   | 
z4 c2c2 c2_7/8B2 B2A2  | A16  | |


